polaris-icons/icons/MetaobjectListIcon.svg

<svg viewBox="0 0 20 20" xmlns="http://www.w3.org/2000/svg">
<path fill-rule="evenodd" d="M15.5 3V4.5H16C16.5523 4.5 17 4.94772 17 5.5V9.5C17 9.58633 17 9.83984 16.9999 10C16.9999 10.0863 16.9999 9.91367 16.9999 10L17 10.75C17 11.1642 16.6642 11.5 16.25 11.5C15.8358 11.5 15.5 11.1642 15.5 10.75V10.5H3.5V14.25H9.75C10.1642 14.25 10.5 14.5858 10.5 15C10.5 15.4142 10.1642 15.75 9.75 15.75H3C2.44771 15.75 2 15.3023 2 14.75V10C2 9.44772 2.44772 9 3 9H3.5V7.5C3.5 6.94772 3.94772 6.5 4.5 6.5H7C7.55228 6.5 8 6.94772 8 7.5V9H9.5V5.5C9.5 4.94772 9.94772 4.5 10.5 4.5H11V3C11 2.44772 11.4477 2 12 2H14.5C15.0523 2 15.5 2.44772 15.5 3ZM14 3.5V4.5H12.5V3.5H14ZM11 6V9H15.5V6H11ZM6.5 9H5V8H6.5V9Z"/>
<path d="M11.4482 13.75C11.4482 13.3358 11.784 13 12.1982 13H17.6982C18.1125 13 18.4482 13.3358 18.4482 13.75C18.4482 14.1642 18.1125 14.5 17.6982 14.5H12.1982C11.784 14.5 11.4482 14.1642 11.4482 13.75Z"/>
<path d="M11.4482 16.75C11.4482 16.3358 11.784 16 12.1982 16H17.6982C18.1125 16 18.4482 16.3358 18.4482 16.75C18.4482 17.1642 18.1125 17.5 17.6982 17.5H12.1982C11.784 17.5 11.4482 17.1642 11.4482 16.75Z"/>
</svg>

<svg xmlns="http://www.w3.org/2000/svg" viewBox="0 0 20 20"><path fill-rule="evenodd" d="M15.5 3v1.5h.5c.552 0 1 .448 1 1v4.5c0 .086 0-.086 0 0v.75c0 .414-.336.75-.75.75s-.75-.336-.75-.75v-.25h-12v3.75h6.25c.414 0 .75.336.75.75s-.336.75-.75.75h-6.75c-.552 0-1-.448-1-1v-4.75c0-.552.448-1 1-1h.5v-1.5c0-.552.448-1 1-1h2.5c.552 0 1 .448 1 1v1.5h1.5v-3.5c0-.552.448-1 1-1h.5v-1.5c0-.552.448-1 1-1h2.5c.552 0 1 .448 1 1Zm-1.5.5v1h-1.5v-1h1.5Zm-3 2.5v3h4.5v-3h-4.5Zm-4.5 3h-1.5v-1h1.5v1Z"/><path d="M11.448 13.75c0-.414.336-.75.75-.75h5.5c.415 0 .75.336.75.75s-.335.75-.75.75h-5.5c-.414 0-.75-.336-.75-.75Z"/><path d="M11.448 16.75c0-.414.336-.75.75-.75h5.5c.415 0 .75.336.75.75s-.335.75-.75.75h-5.5c-.414 0-.75-.336-.75-.75Z"/></svg>
